package/converter/svg/light/file-chart-column.svg

<svg xmlns="http://www.w3.org/2000/svg" viewBox="0 0 384 512"><!-- Font Awesome Pro 6.0.0-alpha2 by @fontawesome - https://fontawesome.com License - https://fontawesome.com/license (Commercial License) --><path d="M365.256 125.254L258.746 18.746C246.744 6.742 230.465 0 213.49 0H64C28.654 0 0 28.654 0 64V448C0 483.346 28.654 512 64 512H320C355.348 512 384 483.346 384 448V170.51C384 153.535 377.258 137.258 365.256 125.254ZM224 34.076C228.477 35.643 232.666 37.922 236.119 41.375L342.627 147.879C346.08 151.332 348.357 155.523 349.924 160H240C231.188 160 224 152.828 224 144V34.076ZM352 448C352 465.645 337.645 480 320 480H64C46.355 480 32 465.645 32 448V64C32 46.355 46.355 32 64 32H192V144C192 170.469 213.531 192 240 192H352V448ZM96 352C87.156 352 80 359.156 80 368V432C80 440.844 87.156 448 96 448S112 440.844 112 432V368C112 359.156 104.844 352 96 352ZM192 224C183.156 224 176 231.156 176 240V432C176 440.844 183.156 448 192 448S208 440.844 208 432V240C208 231.156 200.844 224 192 224ZM288 448C296.844 448 304 440.844 304 432V304C304 295.156 296.844 288 288 288S272 295.156 272 304V432C272 440.844 279.156 448 288 448Z"/></svg>

<svg xmlns="http://www.w3.org/2000/svg" viewBox="0 0 384 512"><!--! Font Awesome Pro 6.6.0 by @fontawesome - https://fontawesome.com License - https://fontawesome.com/license (Commercial License) Copyright 2024 Fonticons, Inc. --><path d="M320 480L64 480c-17.7 0-32-14.3-32-32L32 64c0-17.7 14.3-32 32-32l128 0 0 112c0 26.5 21.5 48 48 48l112 0 0 256c0 17.7-14.3 32-32 32zM240 160c-8.8 0-16-7.2-16-16l0-111.5c2.8 .7 5.4 2.1 7.4 4.2L347.3 152.6c2.1 2.1 3.5 4.6 4.2 7.4L240 160zM64 0C28.7 0 0 28.7 0 64L0 448c0 35.3 28.7 64 64 64l256 0c35.3 0 64-28.7 64-64l0-284.1c0-12.7-5.1-24.9-14.1-33.9L254.1 14.1c-9-9-21.2-14.1-33.9-14.1L64 0zM208 240c0-8.8-7.2-16-16-16s-16 7.2-16 16l0 192c0 8.8 7.2 16 16 16s16-7.2 16-16l0-192zm96 64c0-8.8-7.2-16-16-16s-16 7.2-16 16l0 128c0 8.8 7.2 16 16 16s16-7.2 16-16l0-128zM112 368c0-8.8-7.2-16-16-16s-16 7.2-16 16l0 64c0 8.8 7.2 16 16 16s16-7.2 16-16l0-64z"/></svg>
